X: 11049
T: JULIA'S HORNPIPE
C: Bob McQuillen 8 July 2001
B: Bob's Note Book 11 #49
R: hornpipe, reel
Z: 2020 John Chambers <jc:trillian.mit.edu>
M: C
L: 1/8
K: G	% and D
DE \
| G2GB AGBd | cdef g2dc | Bdge dBcB | AGFE D2GE |
| DEGB AGBd | cdef agfe | edBd dcAF | G2B2 G2  :|[K:D]
|: FG \
| AFAd fdAd | BGBd A2dB | AFAd fafd | c2e2 e2AG |
| FAde fdAF | G2ed cBAG | FAdf geag | f2d2 d2  :|
%%begintext align
%% One of the fringe
%% benefits of going out to the Folklife Festival every
%% year is the joyful reunion of old friends. Ed
%% Littlefield's partner, Julia Derby, is one of those
%% nice people who always give me a warm welcome;
%% it's always nice to see you, Julia --
%%endtext

%%sep 1 1 500

%%sep 1 1 500

